Apricity Icons/16/panel/dino-status-online.svg

<svg xmlns="http://www.w3.org/2000/svg" width="16" height="16" version="1.1">
 <defs>
  <style id="current-color-scheme" type="text/css">
   .ColorScheme-Text { color:#dfdfdf; } .ColorScheme-Highlight { color:#4285f4; }
  </style>
 </defs>
 <path style="fill:currentColor" class="ColorScheme-Text" d="M 8 1 A 7 7 0 0 0 1 8 A 7 7 0 0 0 8 15 A 7 7 0 0 0 15 8 A 7 7 0 0 0 8 1 z M 9.984375 2.9355469 C 10.548287 2.9265269 11.007742 3.3852882 11 3.9492188 L 11 6.859375 C 11.0179 6.9675062 11.0179 7.0774157 11 7.1855469 L 11 10.982422 L 11 11 L 11 11.986328 L 9 12 L 6 12 L 5 11 L 5 7.0175781 L 6 6.0175781 L 9 6.0175781 L 9 3.9492188 C 8.9924304 3.3978201 9.432995 2.9443724 9.984375 2.9355469 z M 7 8.0175781 L 7 10 L 9 10 L 9 8.0175781 L 7 8.0175781 z"/>
</svg>

<svg xmlns="http://www.w3.org/2000/svg" width="16" height="16"><defs><style id="current-color-scheme" type="text/css"></style></defs><path d="M8 1a7 7 0 0 0-7 7 7 7 0 0 0 7 7 7 7 0 0 0 7-7 7 7 0 0 0-7-7zm1.984 1.936A1 1 0 0 1 11 3.949v2.91a.997.997 0 0 1 0 .327v4.8L9 12H6l-1-1V7.018l1-1h3V3.949a1 1 0 0 1 .984-1.013zM7 8.018V10h2V8.018H7z" fill="currentColor" color="#dfdfdf"/></svg>
